X:1
T:Kitchen Girl
M:4/4
R:Reel
K:Amix
L:1/8
a4 g4 | efed c2 cd | e2 f2 gaba | g2 e2 e2 AA | a4 g4 | efed c2 cd | e2 A2 efed | c2 A2 A4 :|
=c4 B4 | ABAG E2 EG | A2 B2 =c2 d2 | e6/2 f ed=cB | =c4 B4 | ABAG E2 EE | =cBA=c BA G2 | A8:|
